svgs/imdb.svg

<svg width="24" height="24" viewBox="0 0 24 24" fill="none" xmlns="http://www.w3.org/2000/svg">
<path d="M4 7C2.89688 7 2 7.89688 2 9V15.4C2 16.5031 2.89688 17.4 4 17.4H20C21.1031 17.4 22 16.5031 22 15.4V9C22 7.89688 21.1031 7 20 7H4ZM5.4 9.3625H6.675V14.675H5.4V9.3625ZM7.3625 9.3625H9L9.4375 11.875L9.725 9.3625H11.475V14.675H10.4V11.675L9.8375 14.675H9.0375L8.525 11.675V14.675H7.3625V9.3625ZM15.675 9.3625H17V10.5625C17.1594 10.4031 17.5156 10.2 17.875 10.2C18.2344 10.2406 18.7156 10.4828 18.675 10.9625V14.0375C18.675 14.2781 18.6 14.4422 18.4 14.5625C18.2406 14.6016 18.1203 14.6375 17.8 14.6375C17.4797 14.6375 17.0047 14.4406 16.925 14.4C16.8453 14.3594 16.7625 14.675 16.7625 14.675H15.675V9.3625ZM12.1625 9.4H13.6C14.4797 9.4 14.6844 9.47813 14.925 9.6375C15.1656 9.79688 15.275 10.0344 15.275 10.475V13.675C15.275 13.9953 15.125 14.2375 14.925 14.4375C14.725 14.6375 14.4406 14.725 13.6 14.725H12.1625V9.4ZM13.4375 10.2V13.7625C13.6375 13.7625 13.925 13.8031 13.925 13.5625V10.4375C13.925 10.1578 13.6781 10.2 13.4375 10.2ZM17.2 10.875C17.0797 10.875 17 10.9547 17 11.075V13.7625C17 13.9219 17.0797 14 17.2 14C17.3203 14 17.4 13.8828 17.4 13.7625L17.3625 11.075C17.3625 10.9547 17.3203 10.875 17.2 10.875Z" fill="black"/>
</svg>

<svg xmlns="http://www.w3.org/2000/svg" width="24" height="24" fill="none" viewBox="0 0 24 24"><path fill="#000" d="M4 7c-1.103 0-2 .897-2 2v6.4c0 1.103.897 2 2 2h16c1.103 0 2-.897 2-2V9c0-1.103-.897-2-2-2zm1.4 2.363h1.275v5.312H5.4zm1.962 0H9l.438 2.512.287-2.512h1.75v5.312H10.4v-3l-.562 3h-.8l-.513-3v3H7.362zm8.313 0H17v1.2c.16-.16.516-.363.875-.363.36.04.84.283.8.763v3.075c0 .24-.075.404-.275.524-.16.04-.28.075-.6.075-.32 0-.795-.196-.875-.237-.08-.04-.163.275-.163.275h-1.087zm-3.513.037H13.6c.88 0 1.084.078 1.325.237.24.16.35.397.35.838v3.2c0 .32-.15.563-.35.762-.2.2-.484.288-1.325.288h-1.437V9.4m1.275.8v3.563c.2 0 .488.04.488-.2v-3.126c0-.28-.247-.237-.488-.237m3.763.675c-.12 0-.2.08-.2.2v2.688c0 .159.08.237.2.237.12 0 .2-.117.2-.238l-.037-2.687c0-.12-.043-.2-.163-.2"/></svg>
